X:25
T:Brenda Stubbert's
Z: id:dc-reel-352
M:C
L:1/8
K:G Major
Wig|gBG GAB|cde ded|cAA A2:|!
d|efg a2b|a2b age|efg a2b|agf g2d|!
efg a2b|a2b age|dBd Ged|cBA GBd|!
eaf g2e|dBA AGE|GAB dge|dBA A3:|!